svgs/sharp-light/messages.svg

<svg xmlns="http://www.w3.org/2000/svg" viewBox="0 0 640 512"><!--! Font Awesome Pro 6.6.0 by @fontawesome - https://fontawesome.com License - https://fontawesome.com/license (Commercial License) Copyright 2024 Fonticons, Inc. --><path d="M96 384l32-16 96-48 160 0 32 0 0-32 0-256 0-32L384 0 32 0 0 0 0 32 0 288l0 32 32 0 32 0 32 0 0 28.2 0 3.8 0 32zm113.7-92.6L128 332.2l0-12.2 0-32-32 0-64 0L32 32l352 0 0 256-160 0-7.6 0-6.8 3.4zM256 448l32 0 128 0 96 48 32 16 0-32 0-3.8 0-28.2 32 0 32 0 32 0 0-32 0-256 0-32-32 0-160 0 0 32 160 0 0 256-64 0-32 0 0 32 0 12.2-81.7-40.8-6.8-3.4-7.6 0-128 0 0-64-32 0 0 64 0 32z"/></svg>

<svg xmlns="http://www.w3.org/2000/svg" viewBox="0 0 640 512"><!--! Font Awesome Pro 6.4.2 by @fontawesome - https://fontawesome.com License - https://fontawesome.com/license (Commercial License) Copyright 2023 Fonticons, Inc. --><path d="M96 384l32-16 96-48H384h32V288 32 0H384 32 0V32 288v32H32 64 96v28.2V352v32zm113.7-92.6L128 332.2V320 288H96 32V32H384V288H224h-7.6l-6.8 3.4zM256 448h32H416l96 48 32 16V480v-3.8V448h32 32 32V416 160 128H608 448v32H608V416H544 512v32 12.2l-81.7-40.8-6.8-3.4H416 288V352H256v64 32z"/></svg>
